X:1
T:Title
%%score { ( 1 3 ) | ( 2 4 5 ) }
L:1/8
M:4/4
K:Eb
V:1 treble nm="Grand Piano"
V:3 treble 
V:2 bass 
V:4 bass 
V:5 bass 
V:1
 z4 z2[Q:1/4=100] B2 | [Ge]3 [Ge] [_Gd]2 [Gc]2 | [GB]4 [EG]2 [FB]2 | [Ge]2 [CAf]2 [FAd]2 [EAc]2 | %4
[M:3/4] [AB-]4 [GB]2 |[M:1/4] B2 |[M:4/4] c3 d e2 c2 | B4 z4 | [DGB]2 [B,DG]2 [=A,DG]3 [CD_G] | %9
[M:3/4] [B,DG]6 |[M:1/4] [B,DG]2 |[M:4/4] [B,EG]3 [B,EG] E2 G2 | B4 A2 B2 | c3 c c2 c2 | %14
[M:3/4] F2 z2 z2 |[M:1/4] B2 |[M:4/4] c3 d e2 c2 | B4 G2 [Ec]2 | [EB]2 [EG]2 [DG]3 [A,DF] | %19
[M:7/4] [G,E]6 z2 z2 z4 |[M:4/4] [A,CE]8 | [G,B,E]8 |] %22
V:2
 z4 z2 B,2 | [E,B,]3 [E,B,] [E,=A,]2 [E,A,]2 | [E,B,]4 [E,B,]2 [D,B,]2 | [C,G,]2 A,,2 B,,2 C,2 | %4
[M:3/4] z2 B,4 |[M:1/4][K:treble] [G,B,E]2 |[M:4/4] [A,E]3 [G,B,F] [G,B,E]2 [A,E]2 | B,4 z4 | %8
 D,2 D,2 D,3 D, |[M:3/4] G,,6 |[M:1/4] G,2 |[M:4/4] E,3 D, [E,G,]2 [E,B,E]2 | %12
 [E,_DE]4 [F,DE]2 [F,DE]2 | [A,CE]3 [G,B,E] [F,A,E]2 [E,A,E]2 |[M:3/4] D,2 B,,2 [E,G,]2 | %15
[M:1/4] [E,G,E]2 |[M:4/4] [A,E]3 [F,A,F] [G,B,E]2 [A,E]2 | [G,B,E]4 [E,B,E]2 [A,,A,]2 | %18
 [B,,G,]2 [B,,B,]2 [B,,B,]3 B,, |[M:7/4] E,6 z2 z2 z4 |[M:4/4] A,,8 | E,8 |] %22
V:3
 x8 | x8 | x8 | x8 |[M:3/4] F2 z2 z2 |[M:1/4] x2 |[M:4/4] x8 | z2 F2 [B,EG]2 [EGc]2 | x8 | %9
[M:3/4] x6 |[M:1/4] x2 |[M:4/4] x8 | x8 | x8 |[M:3/4] [A,B]2- [A,DB-]2 [EB]2 |[M:1/4] x2 | %16
[M:4/4] x8 | x8 | x8 |[M:7/4] x14 |[M:4/4] x8 | x8 |] %22
V:4
 x8 | x8 | x8 | x8 |[M:3/4] z2 z2 E,2 |[M:1/4][K:treble] x2 |[M:4/4] x8 | [G,E]2 D,2 E,2 C,2 | x8 | %9
[M:3/4] x6 |[M:1/4] x2 |[M:4/4] x8 | x8 | x8 |[M:3/4] x6 |[M:1/4] x2 |[M:4/4] x8 | x8 | x8 | %19
[M:7/4] x14 |[M:4/4] x8 | x8 |] %22
V:5
 x8 | x8 | x8 | x8 |[M:3/4] D,4 z2 |[M:1/4][K:treble] x2 |[M:4/4] x8 | x8 | x8 |[M:3/4] x6 | %10
[M:1/4] x2 |[M:4/4] x8 | x8 | x8 |[M:3/4] x6 |[M:1/4] x2 |[M:4/4] x8 | x8 | x8 |[M:7/4] x14 | %20
[M:4/4] x8 | x8 |] %22

